X:15020
T:One More Dance and Then
R:Polka
C:Trad.
O:England
Z:Paul Hardy's Session Tunebook 2015 (see www.paulhardy.net). Creative Commons cc by-nc-sa licenced.
M:4/4
L:1/4
Q:1/4=180
K:G
B/2c/2|"G"d3/2e/2 dB|g2 Bc|d3/2e/2 "Em"dB|"Am"c A2 B/2c/2|"G"d3/2e/2 "D"dB|"Em"gf "Bm"ed|"C"ed "D"cB|"G"B2"D"A:|
|:A/2B/2|"D"cA fA|ac BA|"G"BG dB|gB AG|"A"ag fe|"D"dc BA|"G"G3/2c/ "D"BA|"G"G3:|

